public/avatar/hat/206.svg

<svg xmlns:xlink="http://www.w3.org/1999/xlink" height="92.9" width="100.7" xmlns="http://www.w3.org/2000/svg"><use height="32.65" transform="translate(16.2 36.6)" width="44.95" xlink:href="#a"/><defs><g id="a" fill-rule="evenodd"><path d="M-.2 5.5q-6.25 0-10.55 4.65-1.4 1.5-2.45 3.3l-.8 1.65-.7 1.8-1.2-1.45q-1.4-1.6-1.4-4.35 0-1.85 1.1-3.3 1.4-2 3.5-2.2Q-7.35-1.9-.05-1.9q7.15 0 12.2 7.35 2.3 0 3.6 2 1.15 1.7 1.15 3.35 0 1.95-1.4 3.25l-1.15 1-.65-1.35q-1.05-2.2-3.25-4.25Q6.05 5.5-.2 5.5" fill="#1c191d" transform="translate(22.45 13.15)"/><path d="M11.35 8.8Q6.6 4.4-.2 4.4q-6.8 0-11.5 5.15-1.5 1.6-2.55 3.55l-.8 1.6-.9-2.05q-.65-2.4.65-4.2 1.55-2.1 3.2-1.7Q-7.15-.75-.05-.75 6.8-.75 11.6 6.6l1.15.05q1.3.25 2.1 1.45 2.1 3.15-.1 5.1-1-2.2-3.4-4.4" fill="#fffbf8" transform="translate(22.45 13.15)"/><path d="M-1 11.4Q-2.7 10-4.45 8.55q-4.8-5.15-5.85-6.9l-.85-1L-.3-2.55l12 2.15-.95 1.15-6.3 7.65-3.5 3-.95.65-1-.65" fill="#1c191d" transform="translate(22.45 13.15)"/><path d="m-9.3 1.05 8.9-2.6L9.35.15l-6.3 7.6-3.3 2.8-3.2-2.65-5.85-6.85" fill="#fee542" transform="translate(22.45 13.15)"/><path d="M1.45 2.4 1.9 2l2.6 4.1Q3.65 7.55.3 10.2L0 9.85 2.8 6.5 1.45 2.4M-2.5 2l2.05 1.8-.35 6.4-1.05-.9.35-5.55-1-1.75" fill="#ffb100" transform="translate(22.45 13.15)"/><path d="m6.1-2.55 16.4-10.6L5.2 7.5 1.9 2.35l-2 2.05-2.05-2.05L-5.4 7.5l-17.05-20.6 16.1 10.55 6.25-8.5 6.2 8.5" fill="#1c191d" transform="translate(22.45 13.15)"/><path d="M5.55-1 17-8.6 5.15 5.25 2 .2-.3 2.55-2.6.2l-3.2 5.05L-17.6-8.6-6.15-1-.3-8.95 5.55-1" fill="red" transform="translate(22.45 13.15)"/><path d="M.25 10.85H-.8l-.05-8.2h1.1v8.2" fill="#1c191d" transform="translate(22.45 13.15)"/><path d="M-17.6-8.65-6.1-1l5.8-7.95-5.9 11.3-11.4-11M17-8.6 6.8.5 5.55-1 17-8.6" fill="#ff5151" transform="translate(22.45 13.15)"/><path d="m5.15 5.25-.9-1.55 12.7-12.15-11.8 13.7" fill="#c00000" transform="translate(22.45 13.15)"/><path d="M-2.95 3.7q-.65 1.8.2 4.4L-4.4 6.3l1.45-2.6m3.55.25Q2.05 6.65.55 8.6L.6 3.95M-17.6-8.7l11.25 7.4 6-7.6L-6.5-.3l-11.1-8.4M5.55-1 17-8.6 6-.45 5.55-1" fill="#fff" transform="translate(22.45 13.15)"/><path d="M10.6 8.6q.85-1.2 2-1.05 1.9.15 3 2.8 1 2.45-.2 3.85-.9 1-3.65 2.6L8.8 18.4l-2.2 1.1.7-2.35 3.3-8.55" fill="#1c191d" transform="translate(22.45 13.15)"/><path d="M14.8 13.5q-.85 1-3.85 2.75l-2.85 1.5 1.15-3.5q1.3-3.8 2.3-5.35 1.15-1.8 2.8.7t.45 3.9" fill="red" transform="translate(22.45 13.15)"/><path d="M14.8 10.45q.15.4-1.6 1.35-2.65 1.45-4.6 4.25 1.75-5.3 2.95-7.15.65-1.05 1.7-.4.95.55 1.55 1.95" fill="#ff5151" transform="translate(22.45 13.15)"/><path d="M14.05 9.2q-1.9-.7-4.2 3.35.9-2.5 1.7-3.65.95-1.55 2.5.3" fill="#fff" transform="translate(22.45 13.15)"/><path d="M-10.95 8.6Q-9.4 11-7.6 17.15l.65 2.35-2.15-1.1q-5.2-2.6-6.6-4.2-1.15-1.4-.2-3.85 1.1-2.65 3-2.8 1.2-.15 1.95 1.05" fill="#1c191d" transform="translate(22.45 13.15)"/><path d="M-15.1 13.5q-1.2-1.4.45-3.9t2.8-.7q1.55 2.45 3.45 8.85-5.35-2.65-6.7-4.25" fill="red" transform="translate(22.45 13.15)"/><path d="M-15.05 10.25q.6-1.35 1.5-1.8 1-.55 1.65.45 1.2 1.75 2.55 6.1.45 1.25-2.85-1.35-3.25-2.6-2.85-3.4" fill="#ff5151" transform="translate(22.45 13.15)"/><path d="M-14.45 9.3q1.6-2.05 2.6-.4 1 1.5 2.25 5.1-1.35-3-3.25-4.1-1.65-.5-1.6-.6" fill="#fff" transform="translate(22.45 13.15)"/></g></defs></svg>

<?xml version="1.0" encoding="UTF-8" standalone="no"?>
<svg xmlns:xlink="http://www.w3.org/1999/xlink" height="92.9px" width="100.7px" xmlns="http://www.w3.org/2000/svg">
  <g transform="matrix(1.0, 0.0, 0.0, 1.0, 38.65, 49.75)">
    <use height="32.65" transform="matrix(1.0, 0.0, 0.0, 1.0, -22.45, -13.15)" width="44.95" xlink:href="#shape0"/>
  </g>
  <defs>
    <g id="shape0" transform="matrix(1.0, 0.0, 0.0, 1.0, 22.45, 13.15)">
      <path d="M-0.2 5.5 Q-6.45 5.5 -10.75 10.15 -12.15 11.65 -13.2 13.45 L-14.0 15.1 -14.7 16.9 -15.9 15.45 Q-17.3 13.85 -17.3 11.1 -17.3 9.25 -16.2 7.8 -14.8 5.8 -12.7 5.6 -7.35 -1.9 -0.05 -1.9 7.1 -1.9 12.15 5.45 14.45 5.45 15.75 7.45 16.9 9.15 16.9 10.8 16.9 12.75 15.5 14.05 L14.35 15.05 13.7 13.7 Q12.65 11.5 10.45 9.45 6.05 5.5 -0.2 5.5" fill="#1c191d" fill-rule="evenodd" stroke="none"/>
      <path d="M11.35 8.8 Q6.6 4.4 -0.2 4.4 -7.0 4.4 -11.7 9.55 -13.2 11.15 -14.25 13.1 L-15.05 14.7 -15.95 12.65 Q-16.6 10.25 -15.3 8.45 -13.75 6.35 -12.1 6.75 -7.15 -0.75 -0.05 -0.75 6.8 -0.75 11.6 6.6 L12.75 6.65 Q14.05 6.9 14.85 8.1 16.95 11.25 14.75 13.2 13.75 11.0 11.35 8.8" fill="#fffbf8" fill-rule="evenodd" stroke="none"/>
      <path d="M-1.0 11.4 Q-2.7 10.0 -4.45 8.55 -9.25 3.4 -10.3 1.65 L-11.15 0.65 -0.3 -2.55 11.7 -0.4 10.75 0.75 4.45 8.4 0.95 11.4 0.0 12.05 -1.0 11.4" fill="#1c191d" fill-rule="evenodd" stroke="none"/>
      <path d="M-9.3 1.05 L-0.4 -1.55 9.35 0.15 3.05 7.75 -0.25 10.55 -3.45 7.9 -9.3 1.05" fill="#fee542" fill-rule="evenodd" stroke="none"/>
      <path d="M1.45 2.4 L1.9 2.0 4.5 6.1 Q3.65 7.55 0.3 10.2 L0.0 9.85 2.8 6.5 1.45 2.4" fill="#ffb100" fill-rule="evenodd" stroke="none"/>
      <path d="M-2.5 2.0 L-0.45 3.8 -0.8 10.2 -1.85 9.3 -1.5 3.75 -2.5 2.0" fill="#ffb100" fill-rule="evenodd" stroke="none"/>
      <path d="M6.1 -2.55 L22.5 -13.15 5.2 7.5 1.9 2.35 -0.1 4.4 -2.15 2.35 -5.4 7.5 -22.45 -13.1 -6.35 -2.55 -0.1 -11.05 6.1 -2.55" fill="#1c191d" fill-rule="evenodd" stroke="none"/>
      <path d="M5.55 -1.0 L17.0 -8.6 5.15 5.25 2.0 0.2 -0.3 2.55 -2.6 0.2 -5.8 5.25 -17.6 -8.6 -6.15 -1.0 -0.3 -8.95 5.55 -1.0" fill="#ff0000" fill-rule="evenodd" stroke="none"/>
      <path d="M0.25 10.85 L-0.8 10.85 -0.85 2.65 0.25 2.65 0.25 10.85" fill="#1c191d" fill-rule="evenodd" stroke="none"/>
      <path d="M-17.6 -8.65 L-6.1 -1.0 -0.3 -8.95 -6.2 2.35 -17.6 -8.65" fill="#ff5151" fill-rule="evenodd" stroke="none"/>
      <path d="M17.0 -8.6 L6.8 0.5 5.55 -1.0 17.0 -8.6" fill="#ff5151" fill-rule="evenodd" stroke="none"/>
      <path d="M5.15 5.25 L4.25 3.7 16.95 -8.45 5.15 5.25" fill="#c00000" fill-rule="evenodd" stroke="none"/>
      <path d="M-2.95 3.7 Q-3.6 5.5 -2.75 8.1 L-4.4 6.3 -2.95 3.7" fill="#ffffff" fill-rule="evenodd" stroke="none"/>
      <path d="M0.6 3.95 Q2.05 6.65 0.55 8.6 L0.6 3.95" fill="#ffffff" fill-rule="evenodd" stroke="none"/>
      <path d="M-17.6 -8.7 L-6.35 -1.3 -0.35 -8.9 -6.5 -0.3 -17.6 -8.7" fill="#ffffff" fill-rule="evenodd" stroke="none"/>
      <path d="M5.55 -1.0 L17.0 -8.6 6.0 -0.45 5.55 -1.0" fill="#ffffff" fill-rule="evenodd" stroke="none"/>
      <path d="M10.6 8.6 Q11.45 7.4 12.6 7.55 14.5 7.7 15.6 10.35 16.6 12.8 15.4 14.2 14.5 15.2 11.75 16.8 L8.8 18.4 6.6 19.5 7.3 17.15 10.6 8.6" fill="#1c191d" fill-rule="evenodd" stroke="none"/>
      <path d="M14.8 13.5 Q13.95 14.5 10.95 16.25 L8.1 17.75 9.25 14.25 Q10.55 10.45 11.55 8.9 12.7 7.1 14.35 9.6 16.0 12.1 14.8 13.5" fill="#ff0000" fill-rule="evenodd" stroke="none"/>
      <path d="M14.8 10.45 Q14.95 10.85 13.2 11.8 10.55 13.25 8.6 16.05 10.35 10.75 11.55 8.9 12.2 7.85 13.25 8.5 14.2 9.05 14.8 10.45" fill="#ff5151" fill-rule="evenodd" stroke="none"/>
      <path d="M14.05 9.2 Q12.15 8.5 9.85 12.55 10.75 10.05 11.55 8.9 12.5 7.35 14.05 9.2" fill="#ffffff" fill-rule="evenodd" stroke="none"/>
      <path d="M-10.95 8.6 Q-9.4 11.0 -7.6 17.15 L-6.95 19.5 -9.1 18.4 Q-14.3 15.8 -15.7 14.2 -16.85 12.8 -15.9 10.35 -14.8 7.7 -12.9 7.55 -11.7 7.4 -10.95 8.6" fill="#1c191d" fill-rule="evenodd" stroke="none"/>
      <path d="M-15.1 13.5 Q-16.3 12.1 -14.65 9.6 -13.0 7.1 -11.85 8.9 -10.3 11.35 -8.4 17.75 -13.75 15.1 -15.1 13.5" fill="#ff0000" fill-rule="evenodd" stroke="none"/>
      <path d="M-15.05 10.25 Q-14.45 8.9 -13.55 8.45 -12.55 7.9 -11.9 8.9 -10.7 10.65 -9.35 15.0 -8.9 16.25 -12.2 13.65 -15.45 11.05 -15.05 10.25" fill="#ff5151" fill-rule="evenodd" stroke="none"/>
      <path d="M-14.45 9.3 Q-12.85 7.25 -11.85 8.9 -10.85 10.4 -9.6 14.0 -10.95 11.0 -12.85 9.9 -14.5 9.4 -14.45 9.3" fill="#ffffff" fill-rule="evenodd" stroke="none"/>
    </g>
  </defs>
</svg>
